X:1
T:River Flows In You
T:River Flows In You
T:YIRUMA
C:Yiruma
%%score 1 { 2 | 3 }
L:1/8
Q:1/4=65
M:4/4
K:A
V:1 treble nm="Violin" snm="Vln."
V:2 treble nm="Piano" snm="Pno."
V:3 bass 
V:1
!mp! agag aead- | d6- dA/c/ | agag aead- | d6- d z |"^A" f4 F4 | c4 d4 | E2- E/E/A/B/ c3 c/d/ | %7
 c3 B/A/ G4 |({Ac)} ag/a/- a/A/g/a/- a/A/e/a/- a/A/d/A/ |{/B} cdec' be{bc'} ba/g/ | %10
 a3 A/B/ cE Ac/d/ | eE cd/c/ B2 z2 |"^B" A4 G4 | E4 z2 a/b/a/g/ | %14
 a/A/e/A/ a/b/a/g/ a/A/e/A/ a/b/a/g/ | a/b/c'/d'/ e'/c'/b/a/ ge a/a/4b/4a/g/ | %16
 a/A/e/A/ a/a/4b/4a/g/ a/A/e/A/ a/a/4b/4a/g/ | a/b/c'/d'/ e'/c'/b/a/ ge B2 | %18
 f/e/f/e/ f/e/f/e/ c/e/c/e/ c/e/c/e/ ||[M:5/4] c4 G2 B,!fermata!G z A/c/ || %20
[M:4/4]"^C" ag/a/- a/A/g/a/- a/A/g/a/- a/A/d/A/ |{/B} cd[Ae]c [GB]3 A/G/ | %22
 ((([EA]2 [EA]/)))E/A/B/ c2- c/E/c/d/ | e2- e/E/d/c/ B4 | d4 d4 | c4 E4 | cE cA/B/ c2- c/E/c/d/ | %27
 e2- e/E/d/c/ B2 a/b/a/g/ |"^D" a/A/e/A/ a/a/4b/4a/g/ a/A/e/A/ a/a/4b/4a/g/ | %29
 a/b/c'/d'/ e'/c'/{bc'}b/a/ g/A/e/A/ E2 | c2 A2 G2 E2 | E8 |"^E" c/e/c/e/ c2 d/e/d/e/ d2 | %33
 e>c- ce B2 a/a/4b/4a/g/ | a/A/e/A/ a/a/4b/4a/g/ a/A/e/A/ a/a/4b/4a/g/ | %35
 a/b/c'/d'/ e'/c'/b/a/ g z z A/c/ |"^F" agag aead | cd[Ae]c [GB]2 AG | A3 A/B/ c3 c/d/ | %39
 e3 d/c/ B3 z/ A/4c/4 | agag aead |{/B} cdec' b3 A/G/ | A3 A/B/ cE cc/d/ | eE cd/c/ B3 A/G/ | %44
 !fermata!A8 |] %45
V:2
 z8 | z4 z2 z z | z8 | z4 z2 z A/c/ | ag/a/- a/A/g/a/- a/A/e/a/- a/A/d/A/ | %5
{/B} cd[Ae]c [GB]3 A/G/ | A2- A/E/A/B/ c3 c/d/ | e3 d/c/ B4 | [cf]2 [Ae]2 [cf]2 [Ae]2 | %9
 [ca]2 [Ae]2 [Be]2 [Bf]2 | AFAc EFAd | EAcA dg a/b/a/g/ | a/A/e/A/ a/b/a/g/ a/A/e/A/ a/b/a/g/ | %13
 a/b/c'/d'/ e'/c'/b/a/ gB z2 | AFAc AFAd | AEAc BEGe | %16
 [cf]/[Ae]/[cf]/[Ae]/ [cf]/[Ae]/[cf]/[Ae]/ [ce]/[Ac]/[ce]/[Ac]/ [ce]/[Ac]/[ce]/[Ac]/ | %17
 [ce]/[Ac]/[ce]/[Ac]/ [ce]/[Ac]/[ce]/[Ac]/ [Be]E a/a/4b/4a/g/ | %18
 a/A/e/A/ a/a/4b/4a/g/ a/A/e/A/ a/b/a/g/ ||[M:5/4] a/b/c'/d'/ e'/c'/b/a/ gB G !fermata!E2 z || %20
[M:4/4] z8 | z8 | z4 z/ E/A/B/ c2- | c/E/c/d/ e2- e/E/d/c/ BG | %24
{/c} ag/a/- a/A/g/a/- a/A/e/a/- a/A/d/A/ |{/B} cdec' be{ec'} ba/g/ | [ea]3 A/B/ c/E/A/B/ c2 | %27
 z/ E/c/d/ e2 z/ E/d/c/ B2 | A3/2e3/2A A3/2e3/2A | C3/2c3/2C Dd a/a/4b/4a/g/ | %30
 a/A/e/A/ a/a/4b/4a/g/ a/A/e/A/ a/a/4b/4a/g/ | a/b/c'/d'/ e'/c'/{bc'}b/a/ g/A/e/A/ a/a/4b/4a/g/ | %32
 a/A/e/A/ a/b/a/g/ a/A/e/A/ a/a/4b/4a/g/ | a/b/c'/d'/ e'/c'/b/a/ gB z2 | AFFA FD[EF]A | %35
 [Cc]EAc eBGE | [Ae]4 [Adf]4 | [Bce]4 [Be]4 | !arpeggio![CEA]2 [EAc]3 E [Ad]2 | %39
 eE [FAce]2 !arpeggio![EABe]4 | [cf]2 [FAd]2 !arpeggio![Aea]2 !arpeggio![Fcf]2 | [EABe]4 [EGBe]4 | %42
 [FAce]4 [FAde]4 | [EABe]4 [EABe]2 [EGBe]2 | cCEA !fermata![ca]4 |] %45
V:3
 z8 | z8 | F,C F2 D,A, E2- | E8 | F,C F2 D,A,ED, | A,,E, C2 E,B, E2 | F,C F2 D,A, E2 | %7
 A,,E, C2 E,B, G2 | F,C F2 D,A,ED, | A,,E,CA,, E,B, E2 | F,C F2 D,B, E2 | A,,E, C2 E,B, E2 | %12
 F,CFF, D,A,ED, | A,,E,CA,, E,B,EE, | F,CEF, D,B,ED, | A,,E,CA,, E,B,EE, | F,,C,F,F,, D,A,CD, | %17
 A,,E,CA,, E,,B,,G,E,, | F,,C,F,F,, D,A,ED, ||[M:5/4] A,,E,CA,,E,,B,, !fermata!G,4 || %20
[M:4/4] F,C F2 D,A,ED, | A,,E,CA,, E,B, E2 | F, C3 D,A, D2 | A,,E,CA,, E,B, E2 | F,CFF, D,A,ED, | %25
 A,,E,CA,, E,B,EE, | F,C F2 D,A,DD, | A,,E,CA,, E,,B,,G,E,, | F,,C,FF, D,A,ED, | %29
 A,,E,CA,, E,,B,,G,E,, | F,,C,FF, D,A,ED, | A,,E,CA,, E,,B,,G,E,, | F,,C,FF, D,A,ED, | %33
 A,,E,CA,, E,,B,,G,E,, | F,,C,A,F, D,A,DD, | A,,E,CA,, E,,B,, G,2 | [F,C]4 D,EFE, | E,C A,2 [EG]4 | %38
 F,, C,3 D,A, E2 | A,,E, C2 E,B, E2 | F,C F2 D,A,ED, | A,,E, C2 E,B, G2 | F,,C, F,2 D,A, D2 | %43
 A,,E, C2 E,,B,, G,2 | F,,C, F,2 !fermata!F4 |] %45

